X: 2
T: Highland Cathedral (Bernhard)
R: strathspey
M: 4/4
L: 1/8
K: Gmaj
|:G3 A/B/ AG DG | A3 B B4 | B3 c/d/ cB AG | A3 B D4 |
  E3 F/G/ GD FG | d3 c B4 | A3 B/c/ BG DG | A3 G G4 :||
|:F3 D/F/  A3 F/A/ | B3 F F3 E | D3 E/F/ E3| F2 FG/A/ E4 :|
  F3 D/F/  A3 F/A/ | B3 F F2 FE | D2 D/E/F E2>D2| D8 |]


